packages/foundations/assets/icons/functional/images/navigation/gear_wheel_16.svg

<svg width="16" height="16" viewBox="0 0 16 16" fill="none" xmlns="http://www.w3.org/2000/svg">
<g clip-path="url(#clip0_187_37)">
<path fill-rule="evenodd" clip-rule="evenodd" d="M9.14998 1.63752C9.87502 1.63752 10.45 2.21248 10.475 2.93752V3.73752L10.675 3.86248L11.4 3.43752C11.6 3.31248 11.8249 3.26248 12.05 3.26248C12.5 3.26248 12.95 3.48752 13.175 3.91248L14.2249 5.66248C14.35 5.88752 14.4 6.11248 14.4 6.33752C14.4 6.73752 14.2 7.23752 13.7249 7.48752L13 7.88752V8.16248L13.7 8.58752C14.2 8.88752 14.3 9.23752 14.35 9.71248C14.35 9.96248 14.3 10.1875 14.175 10.3875L13.175 12.0625C12.95 12.4625 12.5 12.7125 12.05 12.7125C11.8 12.7125 11.575 12.6625 11.375 12.5375L10.65 12.0875L10.4 12.2375V13.0375C10.4 13.7625 9.79998 14.3625 9.07502 14.3625H6.89998C6.17502 14.3625 5.59998 13.7625 5.59998 13.0375V12.2375L5.34998 12.0875L4.62494 12.5375C4.42494 12.6375 4.17502 12.7125 3.95014 12.7126C3.58622 12.7122 3.09278 12.5216 2.82494 12.0625L1.82494 10.3875C1.69998 10.1875 1.64998 9.93752 1.64998 9.71248C1.64998 9.23752 1.87502 8.83752 2.29998 8.58752L2.99998 8.16248V7.88752L2.27502 7.48752C1.87502 7.26248 1.59998 6.81248 1.59998 6.33752C1.59998 6.11248 1.64998 5.88752 1.77502 5.66248L2.82494 3.91248C3.07502 3.48752 3.49998 3.26248 3.94998 3.26248C4.17502 3.26248 4.39998 3.31248 4.59998 3.43752L5.32494 3.86248L5.52494 3.73752V2.93752C5.52494 2.21248 6.12494 1.63752 6.84998 1.63752H9.14998ZM8.87502 3.21248H7.12494V4.63752L5.32494 5.71248L4.04998 4.96248L3.29998 6.23752L4.57502 6.93752L4.59998 9.08752L3.34998 9.81248L4.04998 11.0125L5.29998 10.2625L7.19998 11.2875V12.7625H8.79998V11.2875L10.675 10.2625L11.95 11.0125L12.65 9.81248L11.375 9.08752L11.4249 6.93752L12.7 6.23752L11.95 4.96248L10.65 5.71248L8.87502 4.63752V3.21248ZM8.01255 6.4C8.89447 6.4 9.59998 7.1055 9.59998 7.98742C9.59998 8.8945 8.89447 9.6 8.01255 9.6C7.10548 9.6 6.39998 8.8945 6.39998 7.98742C6.39998 7.1055 7.10548 6.4 8.01255 6.4Z" fill="#1A1C1F"/>
</g>
<defs>
<clipPath id="clip0_187_37">
<rect width="16" height="16" fill="white"/>
</clipPath>
</defs>
</svg>

<svg xmlns="http://www.w3.org/2000/svg" width="16" height="16" fill="none"><g clip-path="url(#a)"><path fill="#1A1C1F" fill-rule="evenodd" d="M9.15 1.638c.725 0 1.3.574 1.325 1.3v.8l.2.124.725-.424c.2-.126.425-.176.65-.176.45 0 .9.226 1.125.65l1.05 1.75c.125.226.175.45.175.676 0 .4-.2.9-.675 1.15l-.725.4v.274l.7.426c.5.3.6.65.65 1.124 0 .25-.05.476-.175.675l-1 1.675c-.225.4-.675.65-1.125.65-.25 0-.475-.05-.675-.175l-.725-.45-.25.15v.8c0 .725-.6 1.326-1.325 1.326H6.9c-.725 0-1.3-.6-1.3-1.325v-.8l-.25-.15-.725.45c-.2.1-.45.175-.675.175a1.34 1.34 0 0 1-1.125-.65l-1-1.676c-.125-.2-.175-.45-.175-.675 0-.474.225-.874.65-1.124l.7-.426v-.274l-.725-.4a1.35 1.35 0 0 1-.675-1.15c0-.226.05-.45.175-.676l1.05-1.75a1.29 1.29 0 0 1 1.125-.65c.225 0 .45.05.65.176l.725.424.2-.124v-.8c0-.726.6-1.3 1.325-1.3zm-.275 1.574h-1.75v1.426l-1.8 1.074-1.275-.75-.75 1.276 1.275.7.025 2.15-1.25.724.7 1.2 1.25-.75 1.9 1.025v1.475h1.6v-1.475l1.875-1.025 1.275.75.7-1.2-1.275-.724.05-2.15 1.275-.7-.75-1.276-1.3.75-1.775-1.074zM8.013 6.4A1.58 1.58 0 0 1 9.6 7.987c0 .908-.706 1.613-1.587 1.613A1.59 1.59 0 0 1 6.4 7.987c0-.881.705-1.587 1.613-1.587" clip-rule="evenodd"/></g><defs><clipPath id="a"><path fill="#fff" d="M0 0h16v16H0z"/></clipPath></defs></svg>
